X:1
T:Benedicta sit creatrix
T:Benedicta sit creatrix
T:Josquin des Prez (c. 1450 - 1521 ed. P. Wing
T:ⓒ by CPDL. This edition may be fully distributed, duplicated, copied, and recorded.
T:ⓒ by CPDL. This edition may be fully distributed, duplicated, copied, and recorded.
T:ⓒ by CPDL. This edition may be fully distributed, duplicated, copied, and recorded.
T:ⓒ by CPDL. This edition may be fully distributed, duplicated, copied, and recorded.
C:Josquin des Prez
Z:ⓒ by CPDL. This edition may be fully distributed, duplicated, copied, and recorded.
%%score [ 1 2 3 4 ]
L:1/8
M:2/2
K:Eb
V:1 treble nm="Soprano" snm="S."
V:2 treble nm="Alto" snm="A."
V:3 treble-8 nm="Tenor" snm="T."
V:4 bass nm="Bass" snm="B."
V:1
"^Blessed be the creator and governor of all, \nthe holy and undivided Trinity, both now and forever,\nand through infinite ages of ages." z8 | %1
w: |
 z8 | z8 | z8 | z8 | z8 | z8 | z8 | B4 B4 | c6 BA | G3 F B4- | B4 A4 | B4 B4 | B3 c d4 | e3 d B4 | %15
w: |||||||Be- ne-|dí- * *|cta * *||sit cre-|á- * *|* * trix|
 z2 A2 G2 B2 | c3 d e3 d | e2 c4 BA | G2 A2 F4 | E2 e4 d2 | e4 f3 e | c4 z2 f2- | f2 e2 d2 c2- | %23
w: et gu- ber-|ná- * * *|||||trix óm-||
 c2 B4 =A2 | B4 c4 | z2 B4 A2 | B4 c4 | z2 B4 AG | G2 FE D2 B2- | B2 AG G2 FE | D2 G2 F2 E2 | %31
w: * * ni-|um *|san- *|cta *|et * *|in- di- * ví- *|* * * du- * *|a * * *|
 D2 G2 F2 B2- | BA G2 F2 E2 | F4 E4- | E4 D4 | EFGA B3 c | d2 e4 d2 | e8 | z8 | z8 | z8 | B8 | c8 | %43
w: ||* a||Trí- * * * * *|* * ni-|tas||||et|nunc|
 d8 | e4 z2 c2 | d3 e f4- | f2 e2 e4- | e4 d4 | e6 B2- | BAGF G2 E2 | B3 A GF E2 | G2 A2 G2 c2- | %52
w: |et sem-||||per et|* * * * * per|in- * * * *|fí- ni- * *|
 c2 BA G2 E2 | e8 | d6 B2 | c2 d4 c2- | c2 B2 c2 e2- | e2 d4 c2- | c2 =B2 c4- | c2 B4 AG | A8- | %61
w: * * * ta *|sæ-|cu- *|ló- * *|||* * rum|||
 A4 FGAB | c2 d2 c2 f2- | f2 ed c4 | A3 B c2 _d2 | c2 B2 A2 _d2 | c2 B2 A3 G | B8 |] %68
w: * sæ- * * *|* * cu- *|||||la.|
V:2
 B,4 B,4 | C6 B,A, | G,3 F, B,4- | B,4 =A,4 | B,CDE F2 G2 | A3 G FE F2 | B,3 C DE F2 | E2 G2 AGFE | %8
w: Be- ne-|dí- * *|cta * sit||||cre- * * * *||
 D6 CB, | A,3 G, F,4 | C4 D2 F2- | F2 ED C2 F2 | D4 B,4 | z8 | z8 | z4 B,4 | A,3 B, CD E2- | %17
w: ||á- trix *|||||et|gu- * * * ber-|
 E2 F3 C D2 | E4 z2 B2 | G2 A2 B4 | c3 B AG A2- | A2 FG A2 B2- | B2 A2 B2 G2 | A2 E2 F4 | %24
w: * ná- * *|trix ó-|||||* * ni-|
 D4 z2 F2- | F2 E2 F4 | B,2 B4 A2 | B3 A G2 FE | D2 B4 AG | G2 FE D2 G2 | F2 E2 D2 G2 | %31
w: um san-||cta * *||* et * *|in- di- * ví- du-|* * a *|
 F2 B3 A G2 | F2 E2 D2 E2- | E2 D2 E4 | F8 | E4 G4 | F2 E2 F4 | E3 D CB, C2 | B,2 A,G, F,4 | %39
w: |||Tri-|* ni-||tas * * * *||
 E,4 z4 | z4 F4 | G3 F ED E2 | A3 G FE F2 | B3 A GF G2 | c3 B AG A2 | B3 A F4 | G2 E2 G3 A | %47
w: |et|||nunc * * * *||et * *|sem- * * *|
 B4 z2 B2- | BAGF G4 | E2 B3 AGF | E4 G2 A2 | G2 c4 BA | G6 c2- | c2 BA G2 A2 | B8 | z8 | F4 A4 | %57
w: per et||per in- * * *|* fí- ni-||||ta||sæ- *|
 G2 B3 A G2- | G4 E2 F2- | FEDC B,4 | C8 | F,G,A,B, C2 D2 | C2 F4 ED | C4 A,3 B, | C2 _D2 C2 B,2 | %65
w: cu- ló- * *|||rum|sæ- * * * * *|cu- * * *|||
 C2 _D2 C2 B,2 | C2 _D2 C4 | B,8 |] %68
w: ||la.|
V:3
 z8 | z8 | z8 | z8 | B4 B4 | c6 BA | G3 F B4- | B4 A4 | B8 | f8 | e4 d4 | c8 | B3 c d4 | e3 d B4 | %14
w: ||||Be- ne-|dí- * *|cta * sit||cre-|á-||||* * trix|
 z2 A2 G2 B2 | c3 d e3 d | e2 c4 BA | G2 A2 F4 | E2 e4 d2 | e4 f3 e | c4 z4 | f4 e2 d2 | c4 B4 | %23
w: et gu- ber-|ná- * * *|||||trix|óm- * *|* ni-|
 A2 B2 c4 | z2 B4 A2 | B4 c4 | z8 | B8 | B4 B4 | B4 B4 | B8 | z4 B4 | B2 B4 AG | F2 B2 G3 A | B8 | %35
w: um * *|san- *|cta *||et|in- di-|ví- du-|a|Trí-|ni- tas * *|||
 z8 | B8 | c8 | d8 | e3 d cB c2 | B2 AG F4 | E4 z4 | z8 | z8 | z4 e4 | d4 B4 | e8 | f8 | e8- | e8 | %50
w: |et|nunc||et * * * *|* * * sem-|per|||et|nunc et|sem-||||
 e8 | c8 | c4 c4 | c8 | B8 | A2 B2 c4 | d4 c3 d | e2 f3 c e2 | d4 c4- | c2 d4 e2 | f8- | f8- | %62
w: per|et|per in-|fí-||ni- * ta|sæ- cu- *|* ló- * *|rum *|* sæ- cu-|la.||
 f8- | f8- | f8- | f8- | f8- | f8 |] %68
w: ||||||
V:4
 z8 | z8 | B,,8 | C,8 | B,,8 | F,8 | E,4 D,4 | C,8 | B,,8 | z8 | z4 B,,4 | F,8 | G,3 A, B,4 | %13
w: ||Be-|ne-|dí-||cta *||sit||cre-|á-||
 E,4 z2 B,2 | C2 A,2 B,2 G,2 | F,4 E,4 | z8 | z8 | z2 A,2 B,4 | C4 B,4 | z2 A,4 F,2- | %21
w: trix et|gu- ber- ná- *|* trix|||gu- ber-|ná- trix|óm- *|
 F,E, D,2 C,2 B,,2 | z4 z2 B,,2 | F,2 G,2 F,4 | G,4 z2 F,2 | G,4 z2 F,2 | G,4 F,4 | B,,8 | B,,8 | %29
w: * * * ni- um|san-||cta *||||et|
 B,,4 B,,4 | B,,4 B,,4 | B,,8- | B,,8 | B,,4 C,4 | B,,8 | E,8 | z8 | z8 | B,,8 | C,8 | D,8 | %41
w: in- di-|ví- du-|a||Trí- *|ni-|tas|||et|nunc||
 E,3 F, G,4 | F,3 G, A,4 | G,3 A, B,4 | A,3 B, C4 | B,3 C D4 | C3 D E4 | B,8 | E,8- | E,8 | z8 | %51
w: et * *||nunc * *||et * *||sem-|per|||
 z8 | z8 | z8 | z4 B,,4 | F,2 B,,2 F,4 | B,4 A,3 B, | C2 B,4 C2 | G,4 A,2 F,2 | A,2 B,2 G,4 | F,8 | %61
w: |||in-|fí- ni- ta|||* sæ- cu-|ló- * *|rum|
 F,4 F,3 G, | A,2 B,2 A,2 B,2 | F,4 F,4 | F,3 G, A,2 B,2 | A,2 B,2 F,2 B,2 | A,2 B,2 F,4 | B,,8 |] %68
w: sæ- cu- *|||la. * * *||||

